app/public/dtpr-icons/ecology.svg

<svg width="36" height="36" viewBox="0 0 36 36" fill="none" xmlns="http://www.w3.org/2000/svg">
<path d="M31.8564 8.8453L19 1.42265C18.3812 1.06538 17.6188 1.06538 17 1.42265L4.14359 8.8453C3.52479 9.20257 3.14359 9.86282 3.14359 10.5774V25.4226C3.14359 26.1372 3.52479 26.7974 4.14359 27.1547L17 34.5774C17.6188 34.9346 18.3812 34.9346 19 34.5774L31.8564 27.1547C32.4752 26.7974 32.8564 26.1372 32.8564 25.4226V10.5774C32.8564 9.86282 32.4752 9.20256 31.8564 8.8453Z" fill="black" stroke="black" stroke-width="2"/>
<mask id="mask0" mask-type="alpha" maskUnits="userSpaceOnUse" x="9" y="9" width="18" height="18">
<path fill-rule="evenodd" clip-rule="evenodd" d="M9 9H27V27H9V9Z" fill="white"/>
</mask>
<g mask="url(#mask0)">
<path fill-rule="evenodd" clip-rule="evenodd" d="M26.979 9.41071C26.969 9.19971 26.8 9.03071 26.589 9.02071C26.197 9.00071 16.938 8.58571 12.89 12.6337C10.371 15.1527 10.049 19.0507 11.925 21.9227L9.29301 24.5547C8.90201 24.9447 8.90201 25.5787 9.29301 25.9697L10.031 26.7067C10.421 27.0977 11.055 27.0977 11.446 26.7067L14.078 24.0747C16.95 25.9507 20.847 25.6297 23.367 23.1097C27.415 19.0617 27 9.80371 26.979 9.41071Z" fill="white"/>
</g>
</svg>

<svg xmlns="http://www.w3.org/2000/svg" width="36" height="36" fill="none"><path fill="#000" stroke="#000" stroke-width="2" d="M31.856 8.845 19 1.423a2 2 0 0 0-2 0L4.144 8.845a2 2 0 0 0-1 1.732v14.846a2 2 0 0 0 1 1.732L17 34.577a2 2 0 0 0 2 0l12.856-7.422a2 2 0 0 0 1-1.732V10.577a2 2 0 0 0-1-1.732Z"/><mask id="a" width="18" height="18" x="9" y="9" mask-type="alpha" maskUnits="userSpaceOnUse"><path fill="#fff" fill-rule="evenodd" d="M9 9h18v18H9z" clip-rule="evenodd"/></mask><g mask="url(#a)"><path fill="#fff" fill-rule="evenodd" d="M26.979 9.41a.41.41 0 0 0-.39-.39c-.392-.02-9.651-.434-13.699 3.614-2.519 2.519-2.841 6.417-.965 9.289l-2.632 2.632a1 1 0 0 0 0 1.415l.738.737a1 1 0 0 0 1.415 0l2.632-2.632c2.872 1.876 6.769 1.555 9.289-.965C27.415 19.062 27 9.804 26.979 9.41" clip-rule="evenodd"/></g></svg>
